!!!ONB: MCCC : IFC0052_03 : Extracted Monophonic Melody
!!!COM: Chopin, Frédéric
!!!OPR: Mazurkas
!!!OMV: 3
!!!SCT: Op.33
!!!ODT: 1837///
**kern
*thru
*staff1
*Ipiano
*>I
*clefG2
*k[b-e-a-d-]
*A-:
*M3/4
*MM144
4cc[
=1
8.cc]
16b-
8a-
8b-
[4cc
=2
*>A
8.cc]
16b-
8a-
8ff
4ee-
=3
8.cc
16b-
8a-
8b-
4cc
=4
2.e-
=5
8.cc
16b-
8a-
8b-
4cc[
=6
8.cc]
16b-
8a-
8gg
4ff
=7
4b-
2a-
=8
2.a-
=9
8.cc
16b-
8a-
8b-
4cc[
=10
8.cc]
16b-
8a-
8ff
4ee-
=11
8.cc
16b-
12g
12a-
12b-
12b
12dd-
24r
24cc
=12
2.e-
=13
8cc
16r
16b-
8a-
8b-
[4cc
=14
8cc_
32cc]
32b-
32cc
32b-
8a-
16r
16aa-
4ff
=15
8.b-
16cc
4dd-
4g
=16
8.dd-
16cc
4a-
*>B
4f
=17
4dd-
8.b-
16dd-
4ff
=18
8.ee
16cc
8ee-
8dd-
4bb-
=19
4dd-
8b-
8dd-
4ff[
=20
2ff]
[4bb-
=21
2bb-]
[4bb-
=22
2bb-]
4bb-
=23
2dd-
4cc-
=24
4dd-
4cc-
4b-
=25
8.cc
16b-
8a-
8b-
4cc
=26
8.cc
16b-
8a-
16r
16ff
4ee-
=27
8.cc
16b-
8a-
8b-
12b
12dd-
24r
24cc
=28
2.e-
=29
8cc
16r
16b-
8a-
8b-
4cc[
=30
8.cc]
16b-
8a-
8gg
4ff
=31
4b-
2a-
=32
2.a-
=33
8.cc
16b-
8a-
8b-
4cc[
=34
8.cc]
16b-
8a-
8ff
4ee-
=35
12cc
12cc-
12b-
12g
12a-
12b-
12b
12dd-
24r
24cc
=36
2.e-
=37
8cc
16r
16b-
8a-
8b-
[4cc
=38
8cc_
32cc]
32b-
32cc
32b-
8a-
16r
16aa-
4ff
=39
8.b-
16cc
4dd-
8.cc
16b-
=40
*>B1
8.dd-
16cc
4a-
*>B
4f
=41
4dd-
8.b-
16dd-
4ff
=42
8.ee
16cc
8ee-
8dd-
4bb-
=43
4dd-
8b-
8dd-
4ff[
=44
2ff]
[4bb-
=45
2bb-]
[4bb-
=46
2bb-]
4bb-
=47
2dd-
4cc-
=48
4dd-
4cc-
4b-
=49
8.cc
16b-
8a-
8b-
4cc
=50
8.cc
16b-
8a-
16r
16ff
4ee-
=51
8.cc
16b-
8a-
8b-
12b
12dd-
24r
24cc
=52
2.e-
=53
8cc
16r
16b-
8a-
8b-
4cc[
=54
8.cc]
16b-
8a-
8gg
4ff
=55
4b-
2a-
=56
2.a-
=57
8.cc
16b-
8a-
8b-
4cc[
=58
8.cc]
16b-
8a-
8ff
4ee-
=59
12cc
12cc-
12b-
12g
12a-
12b-
12b
12dd-
24r
24cc
=60
2.e-
=61
8cc
16r
16b-
8a-
8b-
[4cc
=62
8cc_
32cc]
32b-
32cc
32b-
8a-
16r
16aa-
4ff
=63
8.b-
16cc
4dd-
8.cc
16b-
=64
*>B2
8.dd-
16cc
2a-
=65
*>C
*k[f#c#g#d#]
8.g#
16a
4.f#
8b
=66
8g#
16r
16B
4e
4g#
=67
8.b
16cc#
4.a#
8dd#
=68
8b
16r
16d#
4g#
4b
=69
8.dd#
16ee
4.cc#
8ff#
=70
8dd#
8b
4.a
8cc#
=71
8b
8g#
8f#
8a
8dd#
8b
=72
8a
8cc#
8b
8g#
8f#
8a
=73
8g#
8a
4.f#
8b
=74
8g#
16r
16B
4e
4g#
=75
8.b
16cc#
4.a#
8dd#
=76
8b
16r
16d#
4g#
4b
=77
8.dd#
16ee
4.cc#
8ff#
=78
8dd#
8b
4.a
8cc#
=79
8b
8g#
4f#
4a
=80
8g#
16r
16B
4e
*>D
4g#[
=81
12g#]
12a#
12b
4cc#
12dd#
12ee
12ff#
=82
12gg#
12aa#
12bb
4ccc#
4ddd#
=83
12g#
12a#
12b
8.cc#
16dd#
12ee
12ff#
12gg#
=84
12aa#
12bb
12ccc#
2ddd#
=85
12g#
12a#
12b
4cc#
12dd#
12ee
12ff#
=86
12gg#
12aa#
12bb
4ccc#
4ddd#
=87
12g#
12a#
12b
8.cc#
16dd#
12ee
12ff#
12gg#
=88
12aa#
12bb
12ccc#
4ddd#
4b
=89
8.g#
16a
4.f#
8b
=90
8g#
16r
16B
4e
4g#
=91
8.b
16cc#
4.a#
8dd#
=92
8b
16r
16d#
4g#
4b
=93
8.dd#
16ee
4.cc#
8ff#
=94
8dd#
8b
4a
4cc#
=95
8b
8g#
8f#
8a
8dd#
8b
=96
8a
8cc#
8b
8g#
8f#
8a
=97
8g#
8a
4.f#
8b
=98
8g#
16r
16B
4e
4g#
=99
8.b
16cc#
4.a#
8dd#
=100
8b
16r
16d#
4g#
4b
=101
8.dd#
16ee
4.cc#
8ff#
=102
8dd#
8b
4.a
8cc#
=103
8b
8g#
4.f#
8a
=104
*>D1
8g#
16r
16B
4e
*>D
4g#[
=105
12g#]
12a#
12b
4cc#
12dd#
12ee
12ff#
=106
12gg#
12aa#
12bb
4ccc#
4ddd#
=107
12g#
12a#
12b
8.cc#
16dd#
12ee
12ff#
12gg#
=108
12aa#
12bb
12ccc#
2ddd#
=109
12g#
12a#
12b
4cc#
12dd#
12ee
12ff#
=110
12gg#
12aa#
12bb
4ccc#
4ddd#
=111
12g#
12a#
12b
8.cc#
16dd#
12ee
12ff#
12gg#
=112
12aa#
12bb
12ccc#
4ddd#
4b
=113
8.g#
16a
4.f#
8b
=114
8g#
16r
16B
4e
4g#
=115
8.b
16cc#
4.a#
8dd#
=116
8b
16r
16d#
4g#
4b
=117
8.dd#
16ee
4.cc#
8ff#
=118
8dd#
8b
4a
4cc#
=119
8b
8g#
8f#
8a
8dd#
8b
=120
8a
8cc#
8b
8g#
8f#
8a
=121
8g#
8a
4.f#
8b
=122
8g#
16r
16B
4e
4g#
=123
8.b
16cc#
4.a#
8dd#
=124
8b
16r
16d#
4g#
4b
=125
8.dd#
16ee
4.cc#
8ff#
=126
8dd#
8b
4.a
8cc#
=127
8b
8g#
4.f#
8a
=128
*>D2
8g#
16r
16B
2e
=129
*>E
*k[b-e-a-d-]
8.cc
16b-
8a-
8b-
4cc
=
*>A
8.cc]
16b-
8a-
8ff
4ee-
=130
8.cc
16b-
8a-
8b-
4cc
=131
2.e-
=132
8.cc
16b-
8a-
8b-
4cc[
=133
8.cc]
16b-
8a-
8gg
4ff
=134
4b-
2a-
=135
2.a-
=136
8.cc
16b-
8a-
8b-
4cc[
=137
8.cc]
16b-
8a-
8ff
4ee-
=138
8.cc
16b-
12g
12a-
12b-
12b
12dd-
24r
24cc
=139
2.e-
=140
8cc
16r
16b-
8a-
8b-
[4cc
=141
8cc_
32cc]
32b-
32cc
32b-
8a-
16r
16aa-
4ff
=142
8.b-
16cc
4dd-
4g
=143
8.dd-
16cc
4a-
*>B
4f
=144
4dd-
8.b-
16dd-
4ff
=145
8.ee
16cc
8ee-
8dd-
4bb-
=146
4dd-
8b-
8dd-
4ff[
=147
2ff]
[4bb-
=148
2bb-]
[4bb-
=149
2bb-]
4bb-
=150
2dd-
4cc-
=151
4dd-
4cc-
4b-
=152
8.cc
16b-
8a-
8b-
4cc
=153
8.cc
16b-
8a-
16r
16ff
4ee-
=154
8.cc
16b-
8a-
8b-
12b
12dd-
24r
24cc
=155
2.e-
=156
8cc
16r
16b-
8a-
8b-
4cc[
=157
8.cc]
16b-
8a-
8gg
4ff
=158
4b-
2a-
=159
2.a-
=160
8.cc
16b-
8a-
8b-
4cc[
=161
8.cc]
16b-
8a-
8ff
4ee-
=162
12cc
12cc-
12b-
12g
12a-
12b-
12b
12dd-
24r
24cc
=163
2.e-
=164
8cc
16r
16b-
8a-
8b-
[4cc
=165
8cc_
32cc]
32b-
32cc
32b-
8a-
16r
16aa-
4ff
=166
8.b-
16cc
4dd-
8.cc
16b-
=167
*>B1
8.dd-
16cc
4a-
*>F
==
*-
